svgs/video_splitter.svg

<svg width="192" height="192" viewBox="0 0 192 192" fill="none" xmlns="http://www.w3.org/2000/svg">
<path d="M85 22L85 170" stroke="black" stroke-width="12" stroke-linecap="round" stroke-linejoin="round"/>
<path d="M43 33H28C24.6863 33 22 35.6863 22 39V46M43 33V46M43 33H64M64 33V46M64 33H79C82.3137 33 85 35.6863 85 39V46M128 33H113C109.686 33 107 35.6863 107 39V46M128 33V46M128 33H149M149 33V46M149 33H164C167.314 33 170 35.6863 170 39V46" stroke="black" stroke-width="12" stroke-linecap="round" stroke-linejoin="round"/>
<path d="M43 159H28C24.6863 159 22 156.314 22 153V146M43 159V146M43 159H64M64 159V146M64 159H79C82.3137 159 85 156.314 85 153V146M128 159H113C109.686 159 107 156.314 107 153V146M128 159V146M128 159H149M149 159V146M149 159H164C167.314 159 170 156.314 170 153V146" stroke="black" stroke-width="12" stroke-linecap="round" stroke-linejoin="round"/>
<rect x="22" y="66" width="63" height="60" rx="6" stroke="black" stroke-width="12" stroke-linejoin="round"/>
<rect x="107" y="66" width="63" height="60" rx="6" stroke="black" stroke-width="12" stroke-linejoin="round"/>
</svg>

<svg xmlns="http://www.w3.org/2000/svg" width="192" height="192" fill="none" viewBox="0 0 192 192"><path stroke="#000" stroke-linecap="round" stroke-linejoin="round" stroke-width="12" d="M85 22v148M43 33H28a6 6 0 0 0-6 6v7m21-13v13m0-13h21m0 0v13m0-13h15a6 6 0 0 1 6 6v7m43-13h-15a6 6 0 0 0-6 6v7m21-13v13m0-13h21m0 0v13m0-13h15a6 6 0 0 1 6 6v7M43 159H28a6 6 0 0 1-6-6v-7m21 13v-13m0 13h21m0 0v-13m0 13h15a6 6 0 0 0 6-6v-7m43 13h-15a6 6 0 0 1-6-6v-7m21 13v-13m0 13h21m0 0v-13m0 13h15a6 6 0 0 0 6-6v-7"/><rect width="63" height="60" x="22" y="66" stroke="#000" stroke-linejoin="round" stroke-width="12" rx="6"/><rect width="63" height="60" x="107" y="66" stroke="#000" stroke-linejoin="round" stroke-width="12" rx="6"/></svg>
